X:1
T:Il Ciuccio di Cola!
T:Il Ciuccio di Cola!
T:Teodoro Cottrau
T:Antonio Migliorato
T:Uh te te ch'è aggraziato! Vi, la coda tecoleja! Ah... la vista m'addecrea... I me sento scunucchià. Ah!... ah!... ah!...ah!... Uh!... Cola senza ciuccio, Puveriello, comme fa!
T:L'ajzzammo mò da terra. Tu p'a coda, i p'a capezza. Che festino, che priezza Si lu veco friccecà! Ah!... ah!... ah!...ah!... Uh!... Cola senza ciuccio, Puveriello, comme fa!
T:Me portava la menestra Che senteva de viola, Torza ricce e pommarola E cappuccie 'nquantità. Ah!... ah!... ah!...ah!... Uh!... Cola senza ciuccio, Puveriello, comme fa!
T:Public Domain - https://imslp.org/wiki/Il_Ciuccio_di_Cola!_(Cottrau,_Teodoro)
T:Public Domain - https://imslp.org/wiki/Il_Ciuccio_di_Cola!_(Cottrau,_Teodoro)
C:Teodoro Cottrau
Z:Antonio Migliorato
Z:Public Domain - https://imslp.org/wiki/Il_Ciuccio_di_Cola!_(Cottrau,_Teodoro)
%%score 1 { ( 2 4 ) | ( 3 5 ) }
L:1/8
Q:1/4=95
M:2/4
K:Db
V:1 treble nm="Canto"
V:2 treble nm="Pianoforte"
V:4 treble 
V:3 bass 
V:5 bass 
V:1
"^Allegretto" F3/2 G/ | A B c d | A F/ z/ f3/2 e/ | d3/2 c/ B A | A{BA} G/ z/ e3/2 e/ | %5
w: Be\- ne|mi\- o che dis\-|gra\- zia Mm è ca\-|du\- to Zuc\- ca\-|riel\- lo! Com\- me|
 e3/2 e/ e3/2 e/ | !>!g3/2 f/ e d | .c .B .A .G | F z F3/2 G/ | A B c d | A F/ z/ f3/2 e/ | %11
w: fac\- cio pu\- ve\-|riel\- lo si scof\-|fa\- to re\- sta|ccà! Si mo|nter\- ra ca\- sca|Muor\- to chi\- sto|
 d3/2 c/ B A | A{BA} G/ z/ e3/2 e/ | e3/2 e/ e3/2 e/ | !>!g3/2 f/ e d | .c .B .A .G | F z z A | %17
w: Po\- ve\- ro ane\-|ma\- Le com\- me|fac\- cio a ca\- ne\-|va\- le la me\-|ne\- sta a car\- re\-|cà! Ah!|
 G z z B | A z z d | c3/2 B/ B{/d} c | B A/ z/ A{/c} B | A G/ z/ G{B} !^!A | F z z !^!A | %23
w: Ah! Ah!|Ah! E|Co\- la pu\- ve\-|riel\- lo sen\- za|Ciuc\- cio com\- me|fa! Ah!|
 !^!G z z !^!B | !^!A z z !^!d | !>!e3/2 d/ c B | A F G A | B C/ z/ !^!F3/2 E/ | D z!D.C.! |] %29
w: Ah! Ah!|Ah| E|Co\- la pu\- ve\-|riel\- lo sen\- za|Ciuc\- cio com\- me|fa!|
V:2
 [DF]>[EG] | [FA][GB] [Gc][Gd] | [FA][DF]/ z/ [Af]>[Ge] | [Fd]>[Ac] [FB][FA] | %4
 [FA]{BA}[EG]/ z/ [Ge]>[Ge] | [Ge]>[Ge] [Ge]>[Ge] | !>![Geg]>[df] [ce][Bd] | .[Ac].[GB].[FA].[EG] | %8
 [DF] z [DF]>[EG] | [FA][GB] [Gc][Gd] | [FA][DF]/ z/ [Af]>[Ge] | d>[Ac] [GB][FA] | %12
 [FA]{BA}[EG]/ z/ e>[Ge] | [Ge]>[Ge] [Ge]>[Ge] | !>![Geg]>[df] [ce][Bd] | .[Ac].[GB].[FA].[EG] | %16
 [DF] z z [FA] | [EG] z z [GB] | [FA] z z [Fc] | [Ac]>[GB] [GB]{/d}[Ac] | %20
 [GB][FA]/ z/ [FA]{/c}[GB] | [FA]G/ z/ [EG]{B}[FA] | [DF] z z [FA] | [EG] z z [GB] | %24
 [FA] z z [Fc] | [Ac]>[GB] [GB][Ac] | [FA][DF] [EG][FA] | [GB]C/ z/ [CF]>E | D z |] %29
V:3
 z2 | D,,A,A, z | D,,A,A, z | D,,A,A, z | A,,[G,A,C][G,A,C] z | A,,[G,A,C] __B,,[G,__B,C] | %6
 !arpeggio![A,,G,A,C]2 z2 | A,,[G,A,C] A,,[G,A,C] | [D,,D,]A,A, z | D,,A,A, z | D,,A,A, z | %11
 D,,A,A, z | A,,[G,A,C][G,A,C] z | A,,[G,A,C] __B,,[G,__B,C] | !arpeggio![A,,G,A,C]2 z2 | %15
 A,,[G,A,C] A,,[G,A,C] | [D,,D,] z z [A,,,A,,] | [C,,C,] z z [A,,,A,,] | [D,,D,] z z [A,,,A,,] | %19
 [E,,E,] z z [A,,,A,,] | [D,,D,] z z [A,,,A,,] | [C,,C,] z z [A,,,A,,] | [D,,D,] z z [A,,,A,,] | %23
 [C,,C,] z z [A,,,A,,] | [D,,D,] z z [A,,,A,,] | [G,,,G,,] z z [E,,,E,,] | [A,,,A,,] z z [A,,A,] | %27
 [A,,,A,,] z G,3/2 z/ | A, z |] %29
V:4
 x2 | x4 | x4 | x4 | x4 | x4 | x4 | x4 | x4 | x4 | x4 | x4 | x4 | x4 | x4 | x4 | z A,/A,/ A, z | %17
 z A,/A,/ A, z | z A,/A,/ A, z | x4 | x4 | x4 | z A,/A,/ A, z | z A,/A,/ A, z | z A,/A,/ A, z | %25
 x4 | x4 | x4 | x2 |] %29
V:5
 x2 | x4 | x4 | x4 | x4 | x4 | x4 | x4 | x4 | x4 | x4 | x4 | x4 | x4 | x4 | x4 | x4 | x4 | x4 | %19
 x4 | x4 | x4 | x4 | x4 | x4 | x4 | x4 | x2 [A,,,A,,]2 | [D,,A,,D,] z |] %29

